X: 1
T: The Road To Youghal
R: reel
M: 4/4
L: 1/8
K: Gmaj
|:B||~d2Bd ABGE|DGBG AE~E2|GEDE GABd|gbaf gedB|
GB~B2 eBdB|AcBG AGEG|gfgd (3efg dB|DEGA BGG:|
|:d||gfge ~d2BG|ABcd eAAB|dg~g2 dcBG|FGAc BcBA|
GB~B2 GBdB|cBcd eAAf|gfgd (3efg dB|DEGA BGG:|

composer: Paddy O'Brien
